X:1
T:The Heavenly Vision
T:The Heavenly Vision
T:Charles Hutchinson Gabriel
T:Samuel H. Pye, 1904
T:Public Domain Courtesy of the Cyber Hymnal™
T:Public Domain Courtesy of the Cyber Hymnal™
C:Charles Hutchinson Gabriel
Z:Public Domain
Z:Courtesy of the Cyber Hymnal™
%%score ( 1 2 ) ( 3 4 )
L:1/8
Q:1/4=83
M:6/8
K:Eb
V:1 treble 
V:2 treble 
V:3 bass 
V:4 bass 
V:1
 [GB] | [GB][^F=A][GB] [Ge]2 [GB] | [GB][^F=A][GB] [EG]2 [EG] | [DB][DF][EG] [FA][GB][FA] | %4
w: 1.~O|trans- port- ing scene! O|rapt- ur- ous dream Which|un- al- loyed plea- sures be-|
w: 2.~His|love and His care Lead|up- ward to where The|flow- ers are al- ways in|
w: 3.~Where|faith’s bril- liant light Adds|strength to our sight, In|vi- sions of rapt- ure and|
 [EG]3- [EG]2 [GB] | [GB][^F=A][GB] [Ge]2 [GB] | [Ac][A=B][Ac] [Ae][Ad][^Fc] | %7
w: stow, * Where|Christ is the beam That|shines o’er the stream That flows|
w: bloom, * And|win- ter’s chill air, And|sum- mer- time glare Are dis-|
w: love; * Where|lives are made bright, And|souls in their flight Wing their|
 [GB][Ac][GB] [FA][EG][DF] | E4 ||"^Refrain" [Ge][Ge] | [Ad][FA][FA] [FA][FB][Ad] | %11
w: dark- ly the val- ley be-|low.|Will you|go to that land, To that|
w: pelled in the sweet- est per-|fume.|||
w: way to the man- sions a-|bove.|||
 [Gc][EG][EG] (G^F)[EG] | BDF Bc[FA] | G3- [GB][Ge][Ge] | [Ad][FA][FA] [FA][FB][Ad] | %15
w: beau- ti- ful stand, * Where|ne- ver- more com- eth the|night, * And the|* Sav- ior of men Will|
w: ||||
w: ||||
 [Gc][EG][EG] (G^F)[EG] | [GB][Ac][GB] [FA][EG][DF] | E3- E2 |] %18
w: re- veal to us * then|His trea- sures of grace and|de- *|
w: |||
w: |||
V:2
 x | x6 | x6 | x6 | x6 | x6 | x6 | x6 | E4 || x2 | x6 | x3 E2 x | D3 A2 x | E E E x3 | x6 | %15
 x3 E2 x | x6 | E3- E2 |] %18
V:3
 [E,E] | [E,E][E,E][E,E] [E,B,]2 [E,E] | [E,E][E,E][E,E] [E,B,]2 [E,B,] | %3
w: ~|~ ~ ~ ~ ~|~ ~ ~ ~ ~|
 [B,,B,][B,,B,][B,,B,] [B,,B,][B,,B,][B,,B,] | [E,B,]3- [E,B,]2 [E,E] | %5
w: ~ ~ ~ ~ ~ ~|~ * ~|
 [E,E][E,E][E,E] [E,B,]2 [E,E] | [A,E][A,D][A,E] [A,,C][A,,C][=A,,E] | %7
w: ~ ~ ~ ~ ~|~ ~ ~ ~ ~ ~|
 [B,,E][B,,E][B,,E] [B,,B,][B,,B,][B,,B,] | [E,G,]4 || [E,B,][E,B,] | [F,B,][B,D][B,D] [B,D] z2 | %11
w: ~ ~ ~ ~ ~ ~|~|~ ~|~ ~ ~ ~|
 [E,E][E,B,][E,B,] (B,=A,)[E,B,] | [B,,B,]3 [B,,D]2 [B,,B,] | %13
w: ~ ~ ~ ~ * ~|ne- ver- more|
 [E,B,][E,B,][E,B,] [E,E][E,B,][E,B,] | [F,B,][B,D][B,D] [B,D][B,D][B,,D] | %15
w: com- eth the night. * *||
 [E,E][E,B,][E,B,] (B,=A,)[E,B,] | [B,,B,][B,,B,][B,,B,] [B,,B,][B,,B,][B,,A,] | %17
w: ||
 [E,G,]3- [E,G,]2 |] %18
w: |
V:4
 x | x6 | x6 | x6 | x6 | x6 | x6 | x6 | x4 || x2 | x6 | x3 E,2 x | x6 | x6 | x6 | x3 E,2 x | x6 | %17
 x5 |] %18

